X:1
T:God Our Refuge
T:God Our Refuge
T:William Fiske Sherwin
T:William Fiske Sherwin, 1875
T:Public Domain Courtesy of the Cyber Hymnal™
T:Public Domain Courtesy of the Cyber Hymnal™
C:William Fiske Sherwin
Z:Public Domain
Z:Courtesy of the Cyber Hymnal™
%%score ( 1 2 ) ( 3 4 )
L:1/8
Q:1/4=113
M:4/4
K:D
V:1 treble 
V:2 treble 
V:3 bass 
V:4 bass 
V:1
 [FA]4 [Fd]3 [Fc] | [GB]2 [Gd]2 [FA]2 [DF]2 | D4 [DG]3 [DF] | [DF]2 [A,E]2 [A,D]2 [CE]2 | %4
w: 1.~Come now with|joy and sing- ing,|Loud hal- le-|lu- jahs ring- ing,|
w: 2.~When to this|ref- uge fly- ing,|Turn sin- ners,|help- less, dy- ing,|
w: 3.~In wak- ing|or in sleep- ing,|Bright days, or|nights of weep- ing,|
 ([DF]2 [FA]2) [Fd]3 [Ac] | [GB]2 [Gd]2 [FA]2 [DF]2 | D4 [DG]3 [DF] | [DF]2 [CE]2 D4!fine! || %8
w: Our * grate- ful|trib- ute bring- ing|To our al-|might- y friend;|
w: On * Christ a-|lone re- ly- ing,|No harm can|reach them there;|
w: Our * souls are|in Thy keep- ing|While here we|wait be- low;|
"^Refrain" [CE]4 [CA]3 [E^G] | [DF]2 [D^G]2 [CA]2 [CE]2 | [CA]4 [Fd]3 [Ec] | %11
w: Off- ering with|pur- est plea- sure,|To Him the|
w: When floods of|grief are dash- ing,|And waves of|
w: In Thee a-|lone a- bid- ing,|And in Thy|
 [DB]2 [Ec]2 [DB]2 [CA]2 | [Ac]4 [Ae]3 [^Gd] | [Ac]2 [EB]2 [EA]2 [DF]2 | [CE]4 [EA]3 [FB] | %15
w: heart’s full trea- sure,|Whose love no|thought can mea- sure,|Whose praise shall|
w: sor- row splash- ing,|Light to the|soul comes flash- ing—|God’s smile through|
w: love con- fid- ing,|Safe when Thy|hand is guid- ing,|We’ll ev- er|
 [Ec]2 [DB]2 A4!D.C.! |] %16
w: nev- er end.|
w: dark des- pair.|
w: glad- ly go.|
V:2
 x8 | x8 | D4 x4 | x8 | x8 | x8 | D4 x4 | x4 D4 || x8 | x8 | x8 | x8 | x8 | x8 | x8 | x4 (C2 E2) |] %16
V:3
 [D,A,]4 [D,A,]3 [D,A,] | [D,G,]2 [D,B,]2 [D,D]2 [D,A,]2 | [D,F,]4 [D,B,]3 [D,A,] | %3
w: Chorus—We sing with|ex- ul- ta- tion,|Lord God of|
 [A,,A,]2 [A,,G,]2 [A,,F,]2 [A,,A,]2 | [D,A,]4 [D,A,]3 [F,D] | [G,D]2 [G,B,]2 [D,D]2 [D,A,]2 | %6
w: our sal- va- tion;|Thou art our|sure foun- da- tion,|
 [D,F,]4 [G,,B,]3 [D,A,] | [A,,A,]2 [A,,G,]2 [D,F,]4 || [A,,A,]4 [A,,A,]3 [C,A,] | %9
w: Our ref- uge|ev- er- more.||
 [D,A,]2 [B,,E,]2 [A,,E,]2 [A,,A,]2 | A,4 A,3 A, | [E,^G,]2 [E,G,]2 [A,,A,]2 [A,,A,]2 | %12
w: |||
 [A,E]4 [CE]3 [B,E] | [A,E]2 [^G,D]2 [A,C]2 [D,A,]2 | [A,,A,]4 [C,A,]3 [D,A,] | %15
w: |||
 [E,A,]2 [E,^G,]2 [A,,A,]4 |] %16
w: |
V:4
 x8 | x8 | x8 | x8 | x8 | x8 | x8 | x8 || x8 | x8 | A,4 A,3 A, | x8 | x8 | x8 | x8 | x8 |] %16

